X: 5405
T: Buffett Double, The
R: reel
M: 4/4
K: Edorian
|:BEED EBAG|FDDE FDFA|BEED EBAG|FDDF E4|
BEED EBAG|FDDE FDFA|1 BEED EBAG|FDDF E4:|2 B2BA BcdB|AFDF E4||
|:B2BA BcdB|AFDE FDFA|B2BA BABc|d2 f2 e4|
c2BA BcdB|AFDE FDFA|B2BA BcdB|AFDF E4:|

